X: 1
T: Fraher's
M: 6/8
L: 1/8
R: jig
K: Dmix
|: ~A3 GED | ~D3 GED | ~A3 GEA | ~D3 DEG |
~A3 GED | ~F3 GED | ~A3 GEA | ~D3 DEG :|
|: ABG ~d2A | ~d2A AGE |GAB c2A | BGE EDD |
dAA def | dcA AGE | ~A3 GEA | ~D3 DEG :|
